icons/media/disc-arrow-down-24.svg

<svg width="24" height="24" viewBox="0 0 24 24" fill="none" xmlns="http://www.w3.org/2000/svg">
<path d="M16.3611 19.2224L18.7053 21.3573V15.7474C18.7053 15.5492 18.7885 15.3591 18.9366 15.2189C19.0846 15.0787 19.2854 15 19.4948 15C19.7042 15 19.905 15.0787 20.0531 15.2189C20.2011 15.3591 20.2843 15.5492 20.2843 15.7474V21.3573L22.6285 19.2224C22.699 19.1496 22.784 19.0907 22.8787 19.0492C22.9733 19.0077 23.0757 18.9843 23.1799 18.9805C23.2842 18.9767 23.3882 18.9924 23.4859 19.0269C23.5837 19.0613 23.6733 19.1138 23.7495 19.1812C23.8257 19.2486 23.8871 19.3297 23.93 19.4197C23.973 19.5097 23.9966 19.6068 23.9997 19.7056C24.0027 19.8043 23.985 19.9026 23.9477 19.9948C23.9104 20.087 23.8541 20.1713 23.7822 20.2428L20.0717 23.7629C19.9978 23.8377 19.9085 23.8974 19.8093 23.9382C19.71 23.979 19.603 24 19.4948 24C19.3866 24 19.2796 23.979 19.1804 23.9382C19.0812 23.8974 18.9918 23.8377 18.918 23.7629L15.2074 20.2428C15.0669 20.0976 14.9925 19.9057 15.0006 19.7089C15.0087 19.5121 15.0985 19.3262 15.2505 19.1917C15.4025 19.0572 15.6045 18.985 15.8125 18.9908C16.0205 18.9965 16.2176 19.0797 16.3611 19.2224Z" fill="black"/>
<path fill-rule="evenodd" clip-rule="evenodd" d="M12 2.5C6.75329 2.5 2.5 6.75329 2.5 12C2.5 17.2467 6.75329 21.5 12 21.5C12.4142 21.5 12.75 21.8358 12.75 22.25C12.75 22.6642 12.4142 23 12 23C5.92487 23 1 18.0751 1 12C1 5.92487 5.92487 1 12 1C18.0751 1 23 5.92487 23 12C23 12.4142 22.6642 12.75 22.25 12.75C21.8358 12.75 21.5 12.4142 21.5 12C21.5 6.75329 17.2467 2.5 12 2.5Z" fill="black"/>
<path fill-rule="evenodd" clip-rule="evenodd" d="M12 13.5C12.8284 13.5 13.5 12.8284 13.5 12C13.5 11.1716 12.8284 10.5 12 10.5C11.1716 10.5 10.5 11.1716 10.5 12C10.5 12.8284 11.1716 13.5 12 13.5ZM12 15C13.6569 15 15 13.6569 15 12C15 10.3431 13.6569 9 12 9C10.3431 9 9 10.3431 9 12C9 13.6569 10.3431 15 12 15Z" fill="black"/>
</svg>

<svg xmlns="http://www.w3.org/2000/svg" width="24" height="24"><path d="M16.361 19.222l2.344 2.135v-5.61c0-.198.084-.388.232-.528a.812.812 0 01.558-.219c.21 0 .41.079.558.219.148.14.231.33.231.528v5.61l2.345-2.135a.825.825 0 011.121-.041.75.75 0 01.18.239.714.714 0 01-.148.823l-3.71 3.52a.792.792 0 01-.263.175.828.828 0 01-.891-.175l-3.71-3.52a.725.725 0 01-.207-.534.731.731 0 01.25-.517.815.815 0 01.562-.201.81.81 0 01.548.231z"/><path fill-rule="evenodd" d="M12 2.5a9.5 9.5 0 100 19 .75.75 0 010 1.5C5.925 23 1 18.075 1 12S5.925 1 12 1s11 4.925 11 11a.75.75 0 01-1.5 0A9.5 9.5 0 0012 2.5z"/><path fill-rule="evenodd" d="M12 13.5a1.5 1.5 0 100-3 1.5 1.5 0 000 3zm0 1.5a3 3 0 100-6 3 3 0 000 6z"/></svg>
